foodtherapy/img/header/logo-drop-down-darck.svg

<svg width="215" height="62" viewBox="0 0 215 62" fill="none" xmlns="http://www.w3.org/2000/svg">
<path d="M28.281 28.6633C28.281 28.6633 27.0946 20.6992 36.2611 20.6992C45.4275 20.6992 44.2412 29.9907 44.2412 29.9907C44.2412 29.9907 44.3489 34.0524 36.2611 41.9369C29.4275 48.5988 28.281 48.5325 28.281 48.5325" stroke="#111111" stroke-width="2.35498" stroke-linecap="round" stroke-linejoin="round"/>
<path d="M28.2451 28.6753C28.2451 28.6753 29.4261 20.6992 20.3009 20.6992C11.1757 20.6992 12.3554 30.0026 12.3554 30.0026C12.3554 30.0026 12.249 34.0696 20.3009 41.9647C27.1039 48.6347 28.2451 48.5683 28.2451 48.5683" stroke="#111111" stroke-width="2.35498" stroke-linecap="round" stroke-linejoin="round"/>
<path d="M28.2809 28.6629C28.2809 28.6629 26.9509 24.6809 29.6109 23.3535" stroke="#008B77" stroke-width="2.35498" stroke-linecap="round" stroke-linejoin="round"/>
<path fill-rule="evenodd" clip-rule="evenodd" d="M26.9509 23.3539C36.9819 25.5387 34.931 11.4077 34.931 11.4077C34.931 11.4077 22.0139 17.0662 26.9509 23.3539Z" stroke="#008B77" stroke-width="2.35498" stroke-linecap="round" stroke-linejoin="round"/>
<path d="M28.2809 20.6986C28.2809 20.6986 27.4324 20.2181 32.271 15.3892" stroke="#008B77" stroke-width="1.17749" stroke-linecap="round" stroke-linejoin="round"/>
<path fill-rule="evenodd" clip-rule="evenodd" d="M57.9616 41.5634V28.6562H61.7069V26.9917H57.9616V26.3493C57.944 25.6861 58.0584 25.0261 58.2981 24.4074C58.4657 23.9422 58.7785 23.5429 59.1905 23.2685C59.5136 23.0659 59.8632 22.9087 60.2292 22.8013C60.5583 22.7121 60.8978 22.6675 61.2387 22.6685C61.4743 22.6613 61.7099 22.6809 61.941 22.7269V20.9748C61.6423 20.9159 61.3384 20.8865 61.0339 20.8872C60.5256 20.8873 60.0194 20.9511 59.527 21.077C58.956 21.2351 58.4095 21.4709 57.903 21.7779C57.267 22.1772 56.7711 22.764 56.4839 23.457C56.098 24.3605 55.9133 25.337 55.9426 26.3187V26.9904H54.0992V28.6549H55.9452V41.5621H57.9642L57.9616 41.5634ZM64.1062 39.6799C65.1961 40.7711 66.5868 41.5139 68.1011 41.8136C69.6154 42.1134 71.1848 41.9565 72.6095 41.3631C74.0342 40.7696 75.2496 39.7663 76.101 38.4811C76.9525 37.1959 77.4013 35.6868 77.3904 34.1461C77.4142 33.1335 77.2253 32.127 76.8359 31.1916C76.4465 30.2561 75.8652 29.4124 75.1294 28.7146C73.6415 27.3084 71.6703 26.5247 69.6211 26.5247C67.572 26.5247 65.6007 27.3084 64.1129 28.7146C63.3793 29.4137 62.8 30.2578 62.4121 31.1931C62.0241 32.1284 61.836 33.1342 61.8598 34.1461C61.8338 35.173 62.0197 36.1942 62.4062 37.1462C62.7927 38.0982 63.3714 38.9607 64.1062 39.6799ZM65.5546 29.9902C66.0877 29.458 66.7206 29.0358 67.4172 28.7477C68.1138 28.4597 68.8605 28.3114 69.6145 28.3114C70.3685 28.3114 71.1152 28.4597 71.8118 28.7477C72.5084 29.0358 73.1413 29.458 73.6744 29.9902C74.2207 30.5346 74.6503 31.1843 74.937 31.8997C75.2238 32.6151 75.3616 33.3812 75.3422 34.1515C75.3662 34.9376 75.2308 35.7204 74.9442 36.453C74.6576 37.1856 74.2257 37.8529 73.6744 38.4149C73.1437 38.9514 72.5116 39.3775 71.8147 39.6682C71.1177 39.959 70.3699 40.1087 69.6145 40.1087C68.8591 40.1087 68.1112 39.959 67.4143 39.6682C66.7174 39.3775 66.0852 38.9514 65.5546 38.4149C65.0069 37.8511 64.5782 37.1831 64.2942 36.4507C64.0102 35.7183 63.8767 34.9364 63.9014 34.1515C63.8818 33.3825 64.0181 32.6174 64.3022 31.9023C64.5863 31.1872 65.0123 30.5368 65.5546 29.9902ZM80.9016 39.6799C81.9915 40.7711 83.3822 41.5139 84.8965 41.8136C86.4108 42.1134 87.9802 41.9565 89.4049 41.3631C90.8296 40.7696 92.045 39.7663 92.8965 38.4811C93.7479 37.1959 94.1967 35.6868 94.1858 34.1461C94.2088 33.133 94.0188 32.1262 93.6283 31.1908C93.2377 30.2553 92.6551 29.4118 91.9181 28.7146C90.4303 27.3084 88.4591 26.5247 86.4099 26.5247C84.3608 26.5247 82.3895 27.3084 80.9016 28.7146C80.1681 29.4137 79.5888 30.2578 79.2009 31.1931C78.8129 32.1284 78.6248 33.1342 78.6486 34.1461C78.6234 35.1735 78.8104 36.195 79.198 37.147C79.5857 38.0991 80.1656 38.9613 80.9016 39.6799ZM82.3501 29.9902C83.4264 28.9174 84.8854 28.3147 86.4066 28.3147C87.9278 28.3147 89.3868 28.9174 90.4631 29.9902C91.0095 30.5346 91.4391 31.1843 91.7258 31.8997C92.0126 32.6151 92.1504 33.3812 92.1309 34.1515C92.1549 34.9376 92.0195 35.7204 91.7329 36.453C91.4463 37.1856 91.0144 37.8529 90.4631 38.4149C89.9326 38.9504 89.3009 39.3756 88.6045 39.6658C87.9082 39.9559 87.1612 40.1053 86.4066 40.1053C85.652 40.1053 84.9049 39.9559 84.2086 39.6658C83.5123 39.3756 82.8806 38.9504 82.3501 38.4149C81.8023 37.8511 81.3737 37.1831 81.0897 36.4507C80.8057 35.7183 80.6721 34.9364 80.6968 34.1515C80.6772 33.3825 80.8135 32.6174 81.0976 31.9023C81.3817 31.1872 81.8077 30.5368 82.3501 29.9902ZM101.909 41.9191C102.967 41.949 104.012 41.6762 104.919 41.1329C105.827 40.5896 106.559 39.7985 107.031 38.8529H107.088L107.002 39.9042V41.5687H108.932V21.0346H106.937V28.3058C106.933 28.6776 106.963 29.0489 107.026 29.4155H106.966C106.529 28.5324 105.842 27.7965 104.991 27.2983C104.129 26.7838 103.142 26.5161 102.138 26.5245C101.23 26.4958 100.328 26.6711 99.4976 27.0376C98.6672 27.4041 97.93 27.9523 97.3406 28.6416C96.059 30.2052 95.4024 32.1867 95.4972 34.2046C95.404 36.2092 96.0203 38.1826 97.2382 39.7794C97.7954 40.4733 98.5076 41.0273 99.3177 41.3973C100.128 41.7672 101.014 41.9427 101.904 41.9098L101.909 41.9191ZM98.926 29.9172C99.337 29.4174 99.8553 29.0162 100.443 28.7433C101.03 28.4703 101.671 28.3326 102.319 28.3403C102.992 28.312 103.661 28.4557 104.262 28.7577C104.864 29.0596 105.378 29.5099 105.757 30.0659C106.585 31.276 107.01 32.7158 106.971 34.1807C107.095 35.7875 106.609 37.3819 105.611 38.6485C105.19 39.1268 104.67 39.5078 104.086 39.765C103.503 40.0222 102.87 40.1494 102.232 40.1378C101.581 40.1529 100.935 40.014 100.347 39.7323C99.7595 39.4506 99.247 39.0342 98.8515 38.5171C97.9322 37.2745 97.4721 35.7526 97.5494 34.2099C97.4619 32.6569 97.9522 31.1263 98.926 29.9119V29.9172ZM113.072 38.6339C113.265 39.2118 113.584 39.7396 114.007 40.179C114.429 40.6184 114.945 40.9585 115.515 41.1745C115.989 41.3773 116.485 41.5243 116.993 41.6125C117.433 41.6807 117.878 41.7149 118.323 41.7147C118.656 41.7036 118.988 41.6744 119.318 41.6271V39.1104C119.096 39.1518 118.87 39.1713 118.645 39.1688C118.395 39.169 118.145 39.1495 117.899 39.1104C117.615 39.0581 117.34 38.9688 117.079 38.845C116.783 38.7127 116.514 38.5242 116.289 38.2901C116.035 38.0059 115.841 37.6731 115.719 37.3119C115.554 36.838 115.475 36.3387 115.485 35.8372V29.2403H119.054V26.9373H115.485V22.7283H112.705V26.9373H110.71V29.2442H112.641V36.165C112.627 37.0061 112.773 37.8421 113.072 38.6286V38.6339ZM123.62 41.5687V34.5603C123.568 33.1112 124.07 31.6964 125.025 30.6034C125.464 30.0995 126.009 29.6982 126.621 29.4282C127.232 29.1581 127.896 29.026 128.565 29.0411C128.986 28.9877 129.414 29.049 129.803 29.2187C130.192 29.3884 130.528 29.66 130.775 30.0048C131.202 30.8544 131.398 31.8008 131.345 32.7498V41.5687H134.183V32.102C134.183 28.3253 132.496 26.4369 129.121 26.4369C127.878 26.4057 126.657 26.7742 125.639 27.4881C124.76 28.0794 124.046 28.8831 123.562 29.8243H123.51L123.627 28.5978V20.947H120.789V41.5634H123.627L123.62 41.5687ZM138.207 39.7104C138.95 40.4439 139.836 41.0178 140.809 41.397C141.783 41.7761 142.824 41.9525 143.869 41.9151C144.933 41.9098 145.987 41.7175 146.985 41.347C147.951 41.013 148.841 40.4915 149.604 39.8126L148.407 37.7393C147.226 38.8471 145.667 39.4641 144.047 39.4648C142.748 39.497 141.487 39.0321 140.521 38.1654C140.028 37.7023 139.634 37.1436 139.365 36.5234C139.096 35.9033 138.957 35.2348 138.955 34.559H149.729C149.793 34.1636 149.832 33.7646 149.846 33.3643C149.91 31.5622 149.305 29.7998 148.149 28.4146C147.562 27.7536 146.834 27.233 146.019 26.8917C145.203 26.5504 144.321 26.3972 143.438 26.4435C142.452 26.4143 141.47 26.5885 140.555 26.9553C139.639 27.3221 138.81 27.8736 138.118 28.5752C137.406 29.32 136.853 30.2006 136.491 31.164C136.129 32.1275 135.965 33.154 136.011 34.182C135.98 35.2039 136.16 36.2213 136.537 37.1717C136.915 38.1221 137.483 38.9856 138.207 39.7091V39.7104ZM140.518 29.665C141.305 28.9748 142.324 28.6049 143.371 28.6283C143.84 28.6157 144.307 28.7 144.742 28.8759C145.176 29.0518 145.57 29.3155 145.898 29.6504C146.609 30.4317 146.99 31.457 146.962 32.5122H139.033C139.171 31.4159 139.698 30.4054 140.518 29.6637V29.665ZM154.632 41.5634V35.4323C154.597 33.9433 154.998 32.4765 155.788 31.2127C156.139 30.6392 156.638 30.1701 157.232 29.8542C157.827 29.5384 158.495 29.3873 159.168 29.4168C159.442 29.4077 159.717 29.4273 159.987 29.4752V26.6718C159.735 26.6377 159.481 26.6182 159.226 26.6134C158.155 26.6052 157.12 27.0016 156.329 27.7231C155.481 28.4763 154.854 29.4452 154.515 30.5265H154.457L154.545 29.446V26.7913H151.794V41.5634H154.632ZM161.391 40.7165C162.373 41.5157 163.607 41.9393 164.873 41.9112C165.897 41.9196 166.9 41.6249 167.756 41.0643C168.594 40.5314 169.276 39.7856 169.731 38.9034H169.794L169.707 40.0714V41.5607H172.367V32.2162C172.42 31.435 172.312 30.6512 172.05 29.9131C171.788 29.1749 171.378 28.4979 170.845 27.9235C170.258 27.401 169.573 27.0002 168.83 26.7445C168.086 26.4888 167.299 26.3833 166.515 26.4342C165.471 26.439 164.434 26.6065 163.442 26.9307C162.55 27.1881 161.716 27.6144 160.984 28.1863L162.126 30.2597C163.324 29.356 164.779 28.855 166.281 28.8288C166.722 28.766 167.172 28.8066 167.594 28.9473C168.017 29.088 168.401 29.325 168.716 29.6395C169.031 29.9539 169.269 30.3373 169.41 30.7592C169.551 31.181 169.591 31.6299 169.529 32.0702V32.3622H168.768C167.858 32.3592 166.949 32.4178 166.047 32.5374C165.098 32.6752 164.164 32.895 163.253 33.1944C162.309 33.4759 161.469 34.0301 160.84 34.7873C160.221 35.5663 159.9 36.5389 159.932 37.5322C159.911 38.14 160.032 38.7444 160.286 39.2973C160.54 39.8501 160.92 40.3361 161.395 40.7165H161.391ZM168.794 34.409H169.526V34.9638C169.53 36.1382 169.139 37.2799 168.414 38.2052C168.091 38.6631 167.661 39.0355 167.162 39.2899C166.662 39.5444 166.107 39.6732 165.546 39.6653C164.798 39.7114 164.061 39.4594 163.498 38.9644C163.266 38.7539 163.081 38.4968 162.955 38.21C162.829 37.9232 162.765 37.6131 162.767 37.2999C162.767 35.3726 164.776 34.409 168.794 34.409ZM177.953 47.4037V40.6873C177.96 40.2561 177.92 39.8254 177.836 39.4025H177.894C178.368 40.1902 179.043 40.838 179.85 41.2793C180.658 41.7207 181.568 41.9397 182.488 41.9138C183.4 41.9407 184.306 41.7646 185.141 41.3984C185.976 41.0322 186.719 40.4851 187.316 39.7967C188.621 38.2217 189.289 36.2167 189.189 34.1753C189.286 32.1581 188.664 30.1719 187.433 28.5686C186.863 27.8706 186.138 27.3146 185.315 26.9446C184.492 26.5746 183.595 26.4008 182.693 26.4369C181.661 26.4219 180.643 26.6734 179.738 27.1669C178.878 27.6353 178.176 28.3463 177.719 29.211H177.66L177.748 28.1014V26.7873H175.115V47.4037H177.953ZM179.105 30.2557C179.484 29.8246 179.952 29.4811 180.478 29.2492C181.003 29.0172 181.573 28.9023 182.148 28.9124C182.731 28.8972 183.31 29.0204 183.836 29.2716C184.363 29.5229 184.822 29.8952 185.176 30.3579C185.993 31.4671 186.401 32.8233 186.332 34.1979C186.408 35.585 185.971 36.9517 185.103 38.0379C184.735 38.4871 184.27 38.8476 183.743 39.0928C183.217 39.338 182.641 39.4616 182.06 39.4542C181.46 39.4716 180.864 39.3375 180.33 39.0644C179.795 38.7913 179.338 38.3881 179.001 37.8919C178.241 36.8227 177.846 35.5377 177.874 34.2271C177.77 32.796 178.209 31.3781 179.105 30.2557ZM189.08 46.7839L189.431 46.9883C189.761 47.1874 190.115 47.3443 190.484 47.4555C190.946 47.6104 191.431 47.6893 191.918 47.6891C192.949 47.7019 193.957 47.3903 194.8 46.7985C195.688 46.1522 196.357 45.2504 196.717 44.2141L203.681 26.7807H200.608L197.009 36.4703C196.814 37.0456 196.648 37.6304 196.512 38.2224H196.453L195.897 36.4411L192.181 26.7754H188.989L195.192 41.3762L194.461 43.0699C194.304 43.6733 193.959 44.2111 193.474 44.605C192.99 44.9989 192.393 45.2283 191.769 45.2601C191.146 45.2464 190.547 45.0196 190.072 44.6176L189.08 46.7839Z" fill="#111111"/>
</svg>

<svg width="215" height="62" fill="none" xmlns="http://www.w3.org/2000/svg"><path d="M28.281 28.663s-1.186-7.964 7.98-7.964 7.98 9.292 7.98 9.292.108 4.061-7.98 11.946c-6.834 6.662-7.98 6.596-7.98 6.596" stroke="#111" stroke-width="2.355" stroke-linecap="round" stroke-linejoin="round"/><path d="M28.245 28.675s1.181-7.976-7.944-7.976-7.946 9.304-7.946 9.304-.106 4.067 7.946 11.962c6.803 6.67 7.944 6.603 7.944 6.603" stroke="#111" stroke-width="2.355" stroke-linecap="round" stroke-linejoin="round"/><path d="M28.28 28.663s-1.33-3.982 1.33-5.31" stroke="#008B77" stroke-width="2.355" stroke-linecap="round" stroke-linejoin="round"/><path clip-rule="evenodd" d="M26.95 23.354c10.032 2.185 7.981-11.946 7.981-11.946s-12.917 5.658-7.98 11.946z" stroke="#008B77" stroke-width="2.355" stroke-linecap="round" stroke-linejoin="round"/><path d="M28.28 20.699s-.848-.48 3.991-5.31" stroke="#008B77" stroke-width="1.177" stroke-linecap="round" stroke-linejoin="round"/><path fill-rule="evenodd" clip-rule="evenodd" d="M57.962 41.563V28.656h3.745v-1.664h-3.745v-.643a5.007 5.007 0 01.336-1.942c.168-.465.48-.864.892-1.139a4.16 4.16 0 011.04-.467 3.813 3.813 0 011.009-.132 3.11 3.11 0 01.702.058v-1.752a4.634 4.634 0 00-.907-.088c-.508 0-1.015.064-1.507.19a6.457 6.457 0 00-1.624.7 3.63 3.63 0 00-1.42 1.68 6.771 6.771 0 00-.54 2.862v.671h-1.844v1.665h1.846v12.907h2.02l-.003.001zm6.144-1.883a7.781 7.781 0 008.504 1.683 7.773 7.773 0 003.491-2.882 7.75 7.75 0 001.29-4.335 7.245 7.245 0 00-2.262-5.431 8.02 8.02 0 00-11.016 0 7.272 7.272 0 00-2.253 5.431 7.472 7.472 0 002.246 5.534zm1.449-9.69a5.743 5.743 0 016.257-1.242c.696.288 1.33.71 1.862 1.242a5.678 5.678 0 011.668 4.162 5.829 5.829 0 01-1.668 4.263 5.706 5.706 0 01-4.06 1.694 5.714 5.714 0 01-4.06-1.694 5.86 5.86 0 01-1.653-4.264 5.699 5.699 0 011.654-4.16zm15.347 9.69a7.781 7.781 0 008.503 1.683 7.774 7.774 0 003.492-2.882 7.75 7.75 0 001.289-4.335 7.245 7.245 0 00-2.268-5.431 8.02 8.02 0 00-11.016 0 7.273 7.273 0 00-2.253 5.431 7.472 7.472 0 002.253 5.534zm1.448-9.69a5.746 5.746 0 018.113 0 5.676 5.676 0 011.668 4.162 5.829 5.829 0 01-1.668 4.263 5.705 5.705 0 01-4.056 1.69 5.715 5.715 0 01-4.057-1.69 5.858 5.858 0 01-1.653-4.264 5.699 5.699 0 011.653-4.16zm19.559 11.93a5.554 5.554 0 005.122-3.067h.057l-.086 1.051v1.665h1.93V21.035h-1.995v7.27a6.16 6.16 0 00.089 1.11h-.06a5.05 5.05 0 00-1.975-2.117 5.477 5.477 0 00-2.853-.773 6.064 6.064 0 00-4.797 2.117 8.17 8.17 0 00-1.844 5.563 8.538 8.538 0 001.741 5.574 5.708 5.708 0 004.666 2.13l.005.01zm-2.983-12.003a4.319 4.319 0 013.393-1.577 3.958 3.958 0 013.438 1.726 6.959 6.959 0 011.214 4.115 6.42 6.42 0 01-1.36 4.468 4.386 4.386 0 01-3.379 1.489 4.141 4.141 0 01-3.38-1.62 6.68 6.68 0 01-1.303-4.308 6.303 6.303 0 011.377-4.298v.005zm14.146 8.717a4.1 4.1 0 002.443 2.54c.474.203.97.35 1.478.438.44.069.885.103 1.33.103.333-.011.665-.04.995-.088V39.11a3.459 3.459 0 01-.673.059c-.25 0-.5-.02-.746-.059a3.31 3.31 0 01-.82-.265 2.526 2.526 0 01-.79-.555 2.825 2.825 0 01-.57-.978 4.228 4.228 0 01-.234-1.475V29.24h3.569v-2.303h-3.569v-4.209h-2.78v4.21h-1.995v2.306h1.931v6.921a6.622 6.622 0 00.431 2.464v.005zm10.548 2.935V34.56a5.703 5.703 0 011.405-3.957 4.555 4.555 0 013.54-1.562 2.356 2.356 0 012.21.964c.427.85.623 1.796.57 2.745v8.819h2.838v-9.467c0-3.777-1.687-5.665-5.062-5.665a5.812 5.812 0 00-3.482 1.051 6.272 6.272 0 00-2.077 2.336h-.052l.117-1.226v-7.651h-2.838v20.616h2.838l-.007.006zm14.587-1.859a7.667 7.667 0 005.662 2.205 9.08 9.08 0 003.116-.568 7.75 7.75 0 002.619-1.534l-1.197-2.074a6.377 6.377 0 01-4.36 1.726 5.09 5.09 0 01-3.526-1.3 4.964 4.964 0 01-1.566-3.606h10.774a9.57 9.57 0 00.117-1.195 7.32 7.32 0 00-1.697-4.95 5.894 5.894 0 00-4.711-1.97 7.179 7.179 0 00-5.32 2.131 7.63 7.63 0 00-2.107 5.607 7.493 7.493 0 002.196 5.527v.001zm2.311-10.045a4.187 4.187 0 012.853-1.037 3.414 3.414 0 012.527 1.022 4.09 4.09 0 011.064 2.862h-7.929a4.619 4.619 0 011.485-2.848v.001zm14.114 11.898v-6.13a7.621 7.621 0 011.156-4.22 3.766 3.766 0 013.38-1.796c.274-.01.549.01.819.058v-2.803a6.6 6.6 0 00-.761-.059 4.251 4.251 0 00-2.897 1.11 6.25 6.25 0 00-1.814 2.803h-.058l.088-1.08v-2.655h-2.751v14.772h2.838zm6.759-.846a5.328 5.328 0 003.482 1.194 5.184 5.184 0 002.883-.847 5.608 5.608 0 001.975-2.16h.063l-.087 1.167v1.49h2.66v-9.345a5.755 5.755 0 00-1.522-4.293 5.936 5.936 0 00-4.33-1.489 10.042 10.042 0 00-3.073.497 7.263 7.263 0 00-2.458 1.255l1.142 2.074a7.106 7.106 0 014.155-1.431 2.873 2.873 0 013.248 3.241v.292h-.761c-.91-.003-1.819.056-2.721.175-.949.138-1.883.358-2.794.657a4.991 4.991 0 00-2.413 1.593 4.194 4.194 0 00-.908 2.745 3.905 3.905 0 001.463 3.185h-.004zm7.403-6.308h.732v.555a5.226 5.226 0 01-1.112 3.241 3.45 3.45 0 01-2.868 1.46 2.838 2.838 0 01-2.048-.7 2.23 2.23 0 01-.731-1.665c0-1.927 2.009-2.891 6.027-2.891zm9.159 12.995v-6.717a6.089 6.089 0 00-.117-1.284h.058a5.188 5.188 0 004.594 2.51 6.153 6.153 0 004.828-2.116 8.183 8.183 0 001.873-5.622 8.533 8.533 0 00-1.756-5.606 5.81 5.81 0 00-4.74-2.132 5.99 5.99 0 00-2.955.73 4.974 4.974 0 00-2.019 2.044h-.059l.088-1.11v-1.314h-2.633v20.617h2.838zm1.152-17.148a3.949 3.949 0 013.043-1.344 3.695 3.695 0 013.028 1.446 5.97 5.97 0 011.156 3.84 5.655 5.655 0 01-1.229 3.84 3.866 3.866 0 01-3.043 1.416 3.575 3.575 0 01-3.059-1.562 6.1 6.1 0 01-1.127-3.665 5.702 5.702 0 011.231-3.971zm9.975 16.528l.351.204c.33.2.684.356 1.053.468.462.154.947.233 1.434.233a4.91 4.91 0 002.882-.89 5.38 5.38 0 001.917-2.585l6.964-17.433h-3.073l-3.599 9.69c-.195.575-.361 1.16-.497 1.751h-.059l-.556-1.78-3.716-9.667h-3.192l6.203 14.601-.731 1.694a2.937 2.937 0 01-2.692 2.19 2.72 2.72 0 01-1.697-.642l-.992 2.166z" fill="#111"/></svg>
